SVG_Azure_Grouped/Identity/Azure AD Security.svg

<?xml version="1.0" encoding="UTF-8" standalone="no"?>
<!-- Generated by Microsoft Visio, SVG Export Azure AD Security.svg Page-1 -->

<svg
   xmlns:dc="http://purl.org/dc/elements/1.1/"
   xmlns:cc="http://creativecommons.org/ns#"
   xmlns:rdf="http://www.w3.org/1999/02/22-rdf-syntax-ns#"
   xmlns:svg="http://www.w3.org/2000/svg"
   xmlns="http://www.w3.org/2000/svg"
   xmlns:sodipodi="http://sodipodi.sourceforge.net/DTD/sodipodi-0.dtd"
   xmlns:inkscape="http://www.inkscape.org/namespaces/inkscape"
   width="0.62985766in"
   height="0.78740102in"
   viewBox="0 0 45.349495 56.693184"
   xml:space="preserve"
   class="st3"
   version="1.1"
   id="svg30"
   sodipodi:docname="Azure AD Security.svg"
   style="font-size:12px;overflow:visible;color-interpolation-filters:sRGB;fill:none;fill-rule:evenodd;stroke-linecap:square;stroke-miterlimit:3"
   inkscape:version="0.92.5 (2060ec1f9f, 2020-04-08)"><metadata
   id="metadata34"><rdf:RDF><cc:Work
       rdf:about=""><dc:format>image/svg+xml</dc:format><dc:type
         rdf:resource="http://purl.org/dc/dcmitype/StillImage" /></cc:Work></rdf:RDF></metadata><sodipodi:namedview
   pagecolor="#ffffff"
   bordercolor="#666666"
   borderopacity="1"
   objecttolerance="10"
   gridtolerance="10"
   guidetolerance="10"
   inkscape:pageopacity="0"
   inkscape:pageshadow="2"
   inkscape:window-width="640"
   inkscape:window-height="480"
   id="namedview32"
   showgrid="false"
   inkscape:zoom="1.4193119"
   inkscape:cx="30.235833"
   inkscape:cy="37.790437"
   inkscape:window-x="0"
   inkscape:window-y="0"
   inkscape:window-maximized="0"
   inkscape:current-layer="svg30" />
	<style
   type="text/css"
   id="style2">
	<![CDATA[
		.st1 {fill:#0078d4;stroke:none;stroke-linecap:butt;stroke-width:34}
		.st2 {fill:url(#grad0-8);stroke:none;stroke-linecap:butt;stroke-width:34}
		.st3 {fill:none;fill-rule:evenodd;font-size:12px;overflow:visible;stroke-linecap:square;stroke-miterlimit:3}
	]]>
	</style>

	<defs
   id="Patterns_And_Gradients">
		<linearGradient
   id="grad0-8"
   x1="0"
   y1="65.062615"
   x2="46.502404"
   y2="65.062615"
   gradientTransform="scale(0.89457741,1.1178463)"
   gradientUnits="userSpaceOnUse">
			<stop
   offset="0.18"
   stop-color="#5ea0ef"
   stop-opacity="1"
   id="stop4" />
			<stop
   offset="1"
   stop-color="#0078d4"
   stop-opacity="1"
   id="stop6" />
		</linearGradient>
	</defs>
	<g
   id="g28"
   transform="translate(-34.000632,-34.0043)">
		<title
   id="title10">Page-1</title>
		<g
   id="group13515-1"
   transform="translate(34,-34.0157)">
			<title
   id="title12">Azure AD Security.13515</title>
			<g
   id="group13516-2">
				<title
   id="title14">blueshield</title>
				<g
   id="shape13517-3">
					<title
   id="title16">Sheet.13517</title>
					<path
   d="m 45.35,94.48 c 0,15.24 -18.02,27.53 -21.93,30.02 a 1.41732,1.44901 0 0 1 -1.48,0 C 18.02,122.01 0,109.72 0,94.48 V 76.14 a 1.41732,1.44901 0 0 1 1.39,-1.45 c 14.02,-0.37 10.78,-6.67 21.29,-6.67 10.5,0 7.27,6.3 21.29,6.67 a 1.41732,1.44901 0 0 1 1.38,1.45 z"
   class="st1"
   id="path18"
   inkscape:connector-curvature="0"
   style="fill:#0078d4;stroke:none;stroke-width:34;stroke-linecap:butt" />
				</g>
				<g
   id="shape13518-5"
   transform="translate(1.87949,-2.35265)">
					<title
   id="title21">Sheet.13518</title>
					<path
   d="m 41.6,96.99 c 0,13.98 -16.52,25.2 -20.12,27.53 a 1.32181,1.35136 0 0 1 -1.36,0 C 16.51,122.25 0,110.97 0,96.99 V 80.16 a 1.29408,1.32301 0 0 1 1.26,-1.32 c 12.85,-0.34 9.89,-6.11 19.54,-6.11 9.64,0 6.68,5.77 19.53,6.11 a 1.29408,1.32301 0 0 1 1.27,1.32 z"
   class="st2"
   id="path23"
   inkscape:connector-curvature="0"
   style="fill:url(#grad0-8);stroke:none;stroke-width:34;stroke-linecap:butt" />
				</g>
			</g>
		</g>
	</g>
</svg>

<?xml version="1.0" encoding="UTF-8" standalone="no"?>
<!DOCTYPE svg PUBLIC "-//W3C//DTD SVG 1.1//EN" "http://www.w3.org/Graphics/SVG/1.1/DTD/svg11.dtd">
<!-- Generated by Microsoft Visio, SVG Export Azure AD Security.svg Page-1 -->
<svg xmlns="http://www.w3.org/2000/svg" xmlns:xlink="http://www.w3.org/1999/xlink" xmlns:ev="http://www.w3.org/2001/xml-events"
		width="1.57437in" height="1.73206in" viewBox="0 0 113.354 124.709" xml:space="preserve" color-interpolation-filters="sRGB"
		class="st3">
	<style type="text/css">
	<![CDATA[
		.st1 {fill:#0078d4;stroke:none;stroke-linecap:butt;stroke-width:34}
		.st2 {fill:url(#grad0-8);stroke:none;stroke-linecap:butt;stroke-width:34}
		.st3 {fill:none;fill-rule:evenodd;font-size:12px;overflow:visible;stroke-linecap:square;stroke-miterlimit:3}
	]]>
	</style>

	<defs id="Patterns_And_Gradients">
		<linearGradient id="grad0-8" x1="0" y1="0" x2="1" y2="0" gradientTransform="rotate(90 0.5 0.5)">
			<stop offset="0.18" stop-color="#5ea0ef" stop-opacity="1"/>
			<stop offset="1" stop-color="#0078d4" stop-opacity="1"/>
		</linearGradient>
	</defs>
	<g>
		<title>Page-1</title>
		<g id="group13168-1" transform="translate(34,-34.0157)">
			<title>Azure AD Security.13168</title>
			<g id="group13169-2">
				<title>blueshield</title>
				<g id="shape13170-3">
					<title>Sheet.13170</title>
					<path d="M45.35 94.48 C45.35 109.72 27.33 122.01 23.42 124.5 A1.41732 1.44901 0 0 1 21.94 124.5 C18.02 122.01
								 0 109.72 0 94.48 L0 76.14 A1.41732 1.44901 0 0 1 1.39 74.69 C15.41 74.32 12.17 68.02 22.68 68.02
								 C33.18 68.02 29.95 74.32 43.97 74.69 A1.41732 1.44901 0 0 1 45.35 76.14 L45.35 94.48 Z"
							class="st1"/>
				</g>
				<g id="shape13171-5" transform="translate(1.87949,-2.35265)">
					<title>Sheet.13171</title>
					<path d="M41.6 96.99 C41.6 110.97 25.08 122.19 21.48 124.52 A1.32181 1.35136 0 0 1 20.12 124.52 C16.51 122.25
								 0 110.97 0 96.99 L0 80.16 A1.29408 1.32301 0 0 1 1.26 78.84 C14.11 78.5 11.15 72.73 20.8 72.73 C30.44
								 72.73 27.48 78.5 40.33 78.84 A1.29408 1.32301 0 0 1 41.6 80.16 L41.6 96.99 Z" class="st2"/>
				</g>
			</g>
		</g>
	</g>
</svg>
